src/images/svg/facebook.svg

<svg width="20" height="21" viewBox="0 0 20 21" fill="none" xmlns="http://www.w3.org/2000/svg">
<path fill-rule="evenodd" clip-rule="evenodd" d="M18 9.55437C18 4.55425 13.9701 0.5 9 0.5C4.02991 0.5 0 4.55425 0 9.55437C0 14.0735 3.29063 17.8193 7.59375 18.4992V12.1725H5.30799V9.55437H7.59375V7.55958C7.59375 5.29073 8.93772 4.03646 10.9933 4.03646C11.978 4.03646 13.0082 4.2135 13.0082 4.2135V6.44193H11.8728C10.7554 6.44193 10.4058 7.1396 10.4058 7.85667V9.55437H12.9017L12.5032 12.1725H10.4062V18.5C14.7094 17.8205 18 14.0747 18 9.55437Z" />
</svg>

<svg width="20" height="21" fill="none" xmlns="http://www.w3.org/2000/svg"><path clip-rule="evenodd" d="M18 9.554C18 4.554 13.97.5 9 .5S0 4.554 0 9.554c0 4.52 3.29 8.265 7.594 8.945v-6.326H5.308V9.553h2.286V7.56c0-2.27 1.344-3.524 3.4-3.524.984 0 2.014.178 2.014.178v2.228h-1.135c-1.118 0-1.467.698-1.467 1.415v1.697h2.496l-.399 2.618h-2.097V18.5C14.71 17.82 18 14.075 18 9.554z"/></svg>
